Sources/FrostedUI/Resources/Icons.xcassets/documentPlus20.imageset/document-plus-20.svg

<svg width="20" height="20" viewBox="0 0 20 20" fill="none" xmlns="http://www.w3.org/2000/svg" data-fui-icon="true">
  <path
    d="M15.833 12.583C16.2471 12.583 16.5828 12.919 16.583 13.333V15.083H18.333C18.7471 15.083 19.0828 15.419 19.083 15.833C19.083 16.2472 18.7472 16.583 18.333 16.583H16.583V18.333C16.583 18.7472 16.2472 19.083 15.833 19.083C15.419 19.0828 15.083 18.7471 15.083 18.333V16.583H13.333C12.919 16.5828 12.583 16.2471 12.583 15.833C12.5832 15.4191 12.9191 15.0832 13.333 15.083H15.083V13.333C15.0832 12.9191 15.4191 12.5832 15.833 12.583ZM14.8125 2C16.6081 2 18.0625 3.45769 18.0625 5.25195V11.2451C18.0623 11.6592 17.7266 11.9951 17.3125 11.9951C16.8984 11.9951 16.5627 11.6592 16.5625 11.2451V5.25195C16.5625 4.28479 15.7783 3.5 14.8125 3.5H5.15625C4.18975 3.5 3.40625 4.2835 3.40625 5.25V14.8125C3.40625 15.779 4.1898 16.5625 5.15625 16.5625H11.2061C11.6201 16.5627 11.9561 16.8984 11.9561 17.3125C11.9561 17.7266 11.6201 18.0623 11.2061 18.0625H5.15625C3.36128 18.0625 1.90625 16.6074 1.90625 14.8125V5.25C1.90625 3.45507 3.36132 2 5.15625 2H14.8125ZM10 12.583C10.4139 12.5832 10.7498 12.9191 10.75 13.333C10.75 13.7471 10.4141 14.0828 10 14.083H5.83301C5.41895 14.0828 5.08301 13.7471 5.08301 13.333C5.08321 12.9191 5.41907 12.5832 5.83301 12.583H10ZM14.166 9.25C14.5802 9.25 14.916 9.58581 14.916 10C14.916 10.4142 14.5802 10.75 14.166 10.75H5.83301C5.41895 10.7498 5.08301 10.4141 5.08301 10C5.08303 9.58592 5.41896 9.25018 5.83301 9.25H14.166ZM14.166 5.91699C14.5802 5.91699 14.916 6.25278 14.916 6.66699C14.9159 7.08107 14.5801 7.41699 14.166 7.41699H5.83301C5.41904 7.41681 5.08316 7.08096 5.08301 6.66699C5.08301 6.25289 5.41895 5.91717 5.83301 5.91699H14.166Z"
    fill="currentColor"
  />
</svg>

<svg xmlns="http://www.w3.org/2000/svg" width="20" height="20" fill="none" data-fui-icon="true" viewBox="0 0 20 20"><path fill="currentColor" d="M15.833 12.583a.75.75 0 0 1 .75.75v1.75h1.75a.75.75 0 0 1 0 1.5h-1.75v1.75a.75.75 0 0 1-1.5 0v-1.75h-1.75a.75.75 0 0 1 0-1.5h1.75v-1.75a.75.75 0 0 1 .75-.75M14.813 2a3.25 3.25 0 0 1 3.25 3.252v5.993a.75.75 0 0 1-1.5 0V5.252c0-.967-.785-1.752-1.75-1.752H5.156a1.75 1.75 0 0 0-1.75 1.75v9.563c0 .966.784 1.75 1.75 1.75h6.05a.75.75 0 0 1 0 1.5h-6.05a3.25 3.25 0 0 1-3.25-3.25V5.25A3.25 3.25 0 0 1 5.156 2zM10 12.583a.75.75 0 0 1 0 1.5H5.833a.75.75 0 0 1 0-1.5zm4.166-3.333a.75.75 0 0 1 0 1.5H5.833a.75.75 0 0 1 0-1.5zm0-3.333a.75.75 0 0 1 0 1.5H5.833a.75.75 0 0 1 0-1.5z"/></svg>
